X:64
T:Molloy's Favourite  Reel      Allan's   #64  pp16
C:Trad/Anon.
B:Allan's Irish Fiddler (pub. Mozart Allen,  Glascow) date unknown
Z:FROM ALLAN'S TO NOTEWORTHY, FROM NOTEWORTHY TO ABC, MIDI AND .TXT BY VINCE
BRENNAN Dec. 2002 (HTTP://WWW.SOSYOURMOM.COM)
I:abc2nwc
M:2/2
L:1/8
K:D
c|d2(AG) FADF|(E=c) {d}(3(cBc) (E=c) {d} (3(cBc)|dBcA BGAG|FGEF Dgfe|
d2(AG) FADG| (3(EFG) (AB) =c2(Bc)| (3(d=cB) (cA) BGAG|FGEF EC D:|
|:g|fd  (3(ddd) fdge|fd  (3(ddd) cd(eg)|fd  (3(ddd) fd(ad)| faeg fddg|
fd  (3(ddd) ad  (3(ddd)|e=c  (3(ccc) g=c  (3(ccc)|afge fded|ceag fd d:|
